X: 8452
T: Crag, The
R: polka
M: 2/4
K: Dmajor
e/f/|:g>e fd|eA ce|g>e fd|ed de/f/|
g>e fd|eA ce|f/e/d/c/ A/B/c/d/|1 ed de/f/:|2 ed d/c/d/c/||
|:Bf/B/ Bf/B/|A/B/c/d/ ef|ge e/f/g/e/|fd d/c/d/c/|Bf/B/ Bf/B/|
A/B/c/d/ e z|1 f/e/d/c/ A/B/c/d/|ed d/c/d/c/:|2 f/e/d/c/ A/B/c/d/|ed d2||

